web/themes/quartiers_solidaires/assets/icons/theme_informatique_o.svg

<svg id="Calque_1" data-name="Calque 1" xmlns="http://www.w3.org/2000/svg" viewBox="0 0 120 120">
  <defs>
    <style>
      .cls-1{fill:currentColor}
    </style>
  </defs>
  <circle class="cls-2" cx="60" cy="60" r="51.5"/>
  <path fill="#fff" d="M60 111.5A51.5 51.5 0 1 1 111.5 60 51.56 51.56 0 0 1 60 111.5zm0-100A48.5 48.5 0 1 0 108.5 60 48.55 48.55 0 0 0 60 11.5z"/>
  <path class="cls-1" d="M76.67 86.5a9.84 9.84 0 0 1-9.83-9.83V60a9.83 9.83 0 1 1 19.66 0v16.67a9.84 9.84 0 0 1-9.83 9.83zm0-33.33A6.84 6.84 0 0 0 69.83 60v16.67a6.83 6.83 0 1 0 13.67 0V60a6.84 6.84 0 0 0-6.83-6.83z"/>
  <path class="cls-1" d="M85 66.63H68.33a1.5 1.5 0 0 1 0-3H85a1.5 1.5 0 0 1 0 3z"/>
  <path class="cls-1" d="M44.38 69.83A10.89 10.89 0 0 1 33.5 59V45.42a1.5 1.5 0 0 1 3 0V59a7.88 7.88 0 1 0 15.75 0V46.46a13 13 0 1 1 25.92 0v18.67a1.5 1.5 0 0 1-3 0V46.46a10 10 0 1 0-19.92 0V59a10.89 10.89 0 0 1-10.87 10.83zM35 40.5a1.5 1.5 0 0 1-1.5-1.5v-4a1.5 1.5 0 0 1 3 0v4a1.5 1.5 0 0 1-1.5 1.5z"/>
</svg>

<svg id="Calque_1" data-name="Calque 1" xmlns="http://www.w3.org/2000/svg" viewBox="0 0 120 120"><defs><style>.cls-1{fill:currentColor;}</style></defs><title>Informatique</title><circle class="cls-2" cx="60" cy="60" r="51.5"/><path fill="#fff" d="M60,111.5A51.5,51.5,0,1,1,111.5,60,51.56,51.56,0,0,1,60,111.5Zm0-100A48.5,48.5,0,1,0,108.5,60,48.55,48.55,0,0,0,60,11.5Z"/><path class="cls-1" d="M76.67,86.5a9.84,9.84,0,0,1-9.83-9.83V60A9.83,9.83,0,1,1,86.5,60V76.67A9.84,9.84,0,0,1,76.67,86.5Zm0-33.33A6.84,6.84,0,0,0,69.83,60V76.67a6.83,6.83,0,1,0,13.67,0V60A6.84,6.84,0,0,0,76.67,53.17Z"/><path class="cls-1" d="M85,66.63H68.33a1.5,1.5,0,0,1,0-3H85a1.5,1.5,0,0,1,0,3Z"/><path class="cls-1" d="M44.38,69.83A10.89,10.89,0,0,1,33.5,59V45.42a1.5,1.5,0,0,1,3,0V59a7.88,7.88,0,1,0,15.75,0V46.46a13,13,0,1,1,25.92,0V65.13a1.5,1.5,0,0,1-3,0V46.46a10,10,0,1,0-19.92,0V59A10.89,10.89,0,0,1,44.38,69.83Z"/><path class="cls-1" d="M35,40.5A1.5,1.5,0,0,1,33.5,39V35a1.5,1.5,0,0,1,3,0v4A1.5,1.5,0,0,1,35,40.5Z"/></svg>
